flags/yt.svg

<svg width="512" height="512" viewBox="0 0 512 512" fill="none" xmlns="http://www.w3.org/2000/svg">
<rect width="512" height="512" fill="var(--flag-palette-white, #eeeeee)"/>
<path d="M113 139C109 139 102 141 90.0004 147C85.2829 149.403 80.9103 152.43 77.0004 156C49.0004 183 57.0004 224 66.0004 235C69.0004 239 82.0004 258 98.0004 265C120 273 134 293 135 316C135 340 120 360 101 362H97.0004C78.0004 362 61.0004 343 60.0004 319V321C61.0004 350 80.0004 373 103 373C126 373 147 361 158 341L163 333C165.12 328.595 166.473 323.86 167 319C171 300 173 249 120 224C80.0004 204 75.0004 188 80.0004 181C80.4062 180.638 80.8816 180.363 81.3974 180.191C81.9132 180.019 82.4586 179.954 83.0004 180C82.9936 184.871 84.8576 189.558 88.2073 193.093C91.557 196.629 96.1366 198.744 101 199C104.714 198.951 108.277 197.525 111 195C111 195 129 213 135 206C141 199 135 199 129 192C124 185 129 171 118 164C106 157 100 157 106 149C107.346 147.006 109.123 145.342 111.201 144.13C113.279 142.918 115.603 142.19 118 142C118 142 118 139 113 139ZM400 139C395 139 395 142 395 142C400 143 404 145 407 149C412 157 407 157 395 164C383 171 389 185 383 192C378 199 372 199 378 206C383 213 402 195 402 195C404.724 197.525 408.287 198.951 412 199C416.864 198.744 421.444 196.629 424.794 193.093C428.143 189.558 430.007 184.871 430 180C430.749 180.136 431.442 180.483 432 181C438 188 433 204 392 224C340 249 342 300 345 319L350 333C351.6 335.708 353.267 338.375 355 341C365 361 387 374 409 373C433 373 452 350 453 321V319C451 343 435 362 415 362H411C392 360 378 340 378 316C379 293 393 273 414 265C430 258 443 239 447 235C455 224 464 183 436 156C431.782 152.354 427.069 149.323 422 147C410 141 404 139 400 139ZM26.0004 199C25.0004 199 24.0004 200 24.0004 202C22.0004 218 23.0004 254 57.0004 266C57.254 266.17 57.5432 266.279 57.8457 266.32C58.1482 266.361 58.456 266.332 58.7456 266.235C59.0351 266.139 59.2988 265.977 59.5163 265.763C59.7338 265.549 59.8994 265.288 60.0004 265L66.0004 257V253C61.0004 246 44.0004 222 44.0004 209L42.0004 207C39.1341 207.04 36.2957 206.432 33.698 205.219C31.1003 204.007 28.8106 202.223 27.0004 200L26.0004 199ZM486 199L485 200C483.19 202.223 480.9 204.007 478.303 205.219C475.705 206.432 472.867 207.04 470 207L468 209C468 222 451 246 447 253V257L452 265C452.101 265.288 452.267 265.549 452.485 265.763C452.702 265.977 452.966 266.139 453.255 266.235C453.545 266.332 453.853 266.361 454.155 266.32C454.458 266.279 454.747 266.17 455 266C489 254 490 218 489 202L486 199Z" fill="var(--flag-palette-mid-grey-3, #acabb1)"/>
<path d="M211 147C205.033 147 199.31 149.371 195.09 153.59C190.871 157.81 188.5 163.533 188.5 169.5C188.5 175.467 190.871 181.19 195.09 185.41C199.31 189.629 205.033 192 211 192C205.033 192 199.31 194.371 195.09 198.59C190.871 202.81 188.5 208.533 188.5 214.5C188.5 220.467 190.871 226.19 195.09 230.41C199.31 234.629 205.033 237 211 237L256 269L301 237C306.967 237 312.69 234.629 316.91 230.41C321.129 226.19 323.5 220.467 323.5 214.5C323.5 208.533 321.129 202.81 316.91 198.59C312.69 194.371 306.967 192 301 192C305.45 192 309.8 190.68 313.5 188.208C317.2 185.736 320.084 182.222 321.787 178.11C323.49 173.999 323.936 169.475 323.068 165.11C322.199 160.746 320.057 156.737 316.91 153.59C313.763 150.443 309.754 148.301 305.39 147.432C301.025 146.564 296.501 147.01 292.39 148.713C288.278 150.416 284.764 153.3 282.292 157C279.82 160.7 278.5 165.05 278.5 169.5C278.5 163.533 276.129 157.81 271.91 153.59C267.69 149.371 261.967 147 256 147C250.033 147 244.31 149.371 240.09 153.59C235.871 157.81 233.5 163.533 233.5 169.5C233.5 163.533 231.129 157.81 226.91 153.59C222.69 149.371 216.967 147 211 147Z" fill="var(--flag-palette-blue, #0052b4)"/>
<path d="M232 188C231.497 189.628 231.162 191.304 231 193C231 196.283 231.647 199.534 232.903 202.567C234.159 205.6 236.001 208.356 238.322 210.678C240.644 212.999 243.4 214.841 246.433 216.097C249.466 217.353 252.717 218 256 218C259.283 218 262.534 217.353 265.567 216.097C268.6 214.841 271.356 212.999 273.678 210.678C275.999 208.356 277.841 205.6 279.097 202.567C280.353 199.534 281 196.283 281 193C280.838 191.304 280.503 189.628 280 188C278.671 193.379 275.592 198.164 271.248 201.603C266.904 205.042 261.54 206.94 256 207C250.46 206.94 245.096 205.042 240.752 201.603C236.408 198.164 233.329 193.379 232 188Z" fill="var(--flag-palette-white, #eeeeee)"/>
<path d="M211 327C205.033 327 199.31 324.629 195.09 320.41C190.871 316.19 188.5 310.467 188.5 304.5C188.5 298.533 190.871 292.81 195.09 288.59C199.31 284.371 205.033 282 211 282C205.033 282 199.31 279.629 195.09 275.41C190.871 271.19 188.5 265.467 188.5 259.5C188.5 253.533 190.871 247.81 195.09 243.59C199.31 239.371 205.033 237 211 237H301C306.967 237 312.69 239.371 316.91 243.59C321.129 247.81 323.5 253.533 323.5 259.5C323.5 265.467 321.129 271.19 316.91 275.41C312.69 279.629 306.967 282 301 282C306.967 282 312.69 284.371 316.91 288.59C321.129 292.81 323.5 298.533 323.5 304.5C323.5 310.467 321.129 316.19 316.91 320.41C312.69 324.629 306.967 327 301 327C295.033 327 289.31 324.629 285.09 320.41C280.871 316.19 278.5 310.467 278.5 304.5C278.5 310.467 276.129 316.19 271.91 320.41C267.69 324.629 261.967 327 256 327C250.033 327 244.31 324.629 240.09 320.41C235.871 316.19 233.5 310.467 233.5 304.5C233.5 310.467 231.129 316.19 226.91 320.41C222.69 324.629 216.967 327 211 327Z" fill="var(--flag-palette-bright-red, #d80027)"/>
<path d="M283 254C281.939 254 280.921 254.421 280.171 255.172C279.421 255.922 279 256.939 279 258V266L272 262C271.442 261.483 270.748 261.136 270 261C269.378 261.075 268.783 261.295 268.262 261.643C267.741 261.99 267.308 262.455 267 263C266.628 263.443 266.356 263.961 266.204 264.518C266.052 265.076 266.022 265.66 266.117 266.23C266.212 266.801 266.43 267.344 266.755 267.822C267.08 268.3 267.504 268.702 268 269L275 273L268 276C267.504 276.298 267.08 276.7 266.755 277.178C266.43 277.656 266.212 278.199 266.117 278.77C266.022 279.34 266.052 279.924 266.204 280.482C266.356 281.039 266.628 281.557 267 282C267.587 282.722 268.407 283.217 269.32 283.4C270.232 283.582 271.18 283.441 272 283L279 280V287C279 288.061 279.421 289.078 280.171 289.828C280.921 290.579 281.939 291 283 291C284.061 291 285.078 290.579 285.828 289.828C286.578 289.078 287 288.061 287 287V280L294 283C294.819 283.441 295.767 283.582 296.68 283.4C297.592 283.217 298.413 282.722 299 282C299.372 281.557 299.643 281.039 299.796 280.482C299.948 279.924 299.978 279.34 299.883 278.77C299.788 278.199 299.57 277.656 299.245 277.178C298.92 276.7 298.495 276.298 298 276L291 273L298 269C298.495 268.702 298.92 268.3 299.245 267.822C299.57 267.344 299.788 266.801 299.883 266.23C299.978 265.66 299.948 265.076 299.796 264.518C299.643 263.961 299.372 263.443 299 263C298.691 262.455 298.259 261.99 297.738 261.643C297.217 261.295 296.621 261.075 296 261C295.252 261.136 294.558 261.483 294 262L287 266V258C287 256.939 286.578 255.922 285.828 255.172C285.078 254.421 284.061 254 283 254ZM229 254C227.939 254 226.921 254.421 226.171 255.172C225.421 255.922 225 256.939 225 258V266L218 262C217.442 261.483 216.748 261.136 216 261C215.378 261.075 214.783 261.295 214.262 261.643C213.741 261.99 213.308 262.455 213 263C212.628 263.443 212.356 263.961 212.204 264.518C212.052 265.076 212.022 265.66 212.117 266.23C212.212 266.801 212.429 267.344 212.755 267.822C213.08 268.3 213.504 268.702 214 269L221 273L214 276C213.504 276.298 213.08 276.7 212.755 277.178C212.429 277.656 212.212 278.199 212.117 278.77C212.022 279.34 212.052 279.924 212.204 280.482C212.356 281.039 212.628 281.557 213 282C213.587 282.722 214.407 283.217 215.32 283.4C216.232 283.582 217.18 283.441 218 283L225 280V287C225 288.061 225.421 289.078 226.171 289.828C226.921 290.579 227.939 291 229 291C230.061 291 231.078 290.579 231.828 289.828C232.578 289.078 233 288.061 233 287V280L240 283C240.819 283.441 241.767 283.582 242.68 283.4C243.592 283.217 244.413 282.722 245 282C245.372 281.557 245.643 281.039 245.796 280.482C245.948 279.924 245.978 279.34 245.883 278.77C245.788 278.199 245.57 277.656 245.245 277.178C244.92 276.7 244.495 276.298 244 276L237 273L244 269C244.495 268.702 244.92 268.3 245.245 267.822C245.57 267.344 245.788 266.801 245.883 266.23C245.978 265.66 245.948 265.076 245.796 264.518C245.643 263.961 245.372 263.443 245 263C244.691 262.455 244.259 261.99 243.738 261.643C243.217 261.295 242.621 261.075 242 261C241.252 261.136 240.558 261.483 240 262L233 266V258C233 256.939 232.578 255.922 231.828 255.172C231.078 254.421 230.061 254 229 254Z" fill="var(--flag-palette-yellow, #ffda44)"/>
</svg>

<svg xmlns="http://www.w3.org/2000/svg" width="512" height="512" fill="none"><path fill="var(--flag-palette-white, #eeeeee)" d="M0 0h512v512H0z"/><path fill="var(--flag-palette-mid-grey-3, #acabb1)" d="M113 139c-4 0-11 2-23 8a59 59 0 0 0-13 9c-28 27-20 68-11 79 3 4 16 23 32 30 22 8 36 28 37 51 0 24-15 44-34 46h-4c-19 0-36-19-37-43v2c1 29 20 52 43 52s44-12 55-32l5-8a43 43 0 0 0 4-14c4-19 6-70-47-95-40-20-45-36-40-43a4 4 0 0 1 3-1 19 19 0 0 0 18 19 15 15 0 0 0 10-4s18 18 24 11 0-7-6-14c-5-7 0-21-11-28-12-7-18-7-12-15a16 16 0 0 1 12-7s0-3-5-3m287 0c-5 0-5 3-5 3 5 1 9 3 12 7 5 8 0 8-12 15s-6 21-12 28c-5 7-11 7-5 14 5 7 24-11 24-11a15 15 0 0 0 10 4 19 19 0 0 0 18-19 4 4 0 0 1 2 1c6 7 1 23-40 43-52 25-50 76-47 95l5 14 5 8c10 20 32 33 54 32 24 0 43-23 44-52v-2c-2 24-18 43-38 43h-4c-19-2-33-22-33-46 1-23 15-43 36-51 16-7 29-26 33-30 8-11 17-52-11-79a59 59 0 0 0-14-9c-12-6-18-8-22-8M26 199c-1 0-2 1-2 3-2 16-1 52 33 64a2 2 0 0 0 3-1l6-8v-4c-5-7-22-31-22-44l-2-2a19 19 0 0 1-15-7zm460 0-1 1a19 19 0 0 1-15 7l-2 2c0 13-17 37-21 44v4l5 8a2 2 0 0 0 3 1c34-12 35-48 34-64z"/><path fill="var(--flag-palette-blue, #0052b4)" d="M211 147a22.5 22.5 0 0 0 0 45 22.5 22.5 0 0 0 0 45l45 32 45-32a22.5 22.5 0 0 0 0-45 22.5 22.5 0 1 0-22.5-22.5 22.5 22.5 0 0 0-45 0A22.5 22.5 0 0 0 211 147"/><path fill="var(--flag-palette-white, #eeeeee)" d="M232 188a25 25 0 0 0-1 5 25 25 0 0 0 50 0 25 25 0 0 0-1-5 25 25 0 0 1-24 19 25 25 0 0 1-24-19"/><path fill="var(--flag-palette-bright-red, #d80027)" d="M211 327a22.5 22.5 0 0 1 0-45 22.5 22.5 0 0 1 0-45h90a22.5 22.5 0 0 1 0 45 22.5 22.5 0 1 1-22.5 22.5 22.5 22.5 0 0 1-45 0A22.5 22.5 0 0 1 211 327"/><path fill="var(--flag-palette-yellow, #ffda44)" d="M283 254a4 4 0 0 0-4 4v8l-7-4a4 4 0 0 0-2-1 4 4 0 0 0-3 2 4 4 0 0 0 1 6l7 4-7 3a4 4 0 0 0-1 6 4 4 0 0 0 5 1l7-3v7a4 4 0 1 0 8 0v-7l7 3a4 4 0 0 0 5-1 4 4 0 0 0-1-6l-7-3 7-4a4 4 0 0 0 1-6 4 4 0 0 0-3-2 4 4 0 0 0-2 1l-7 4v-8a4 4 0 0 0-4-4m-54 0a4 4 0 0 0-4 4v8l-7-4a4 4 0 0 0-2-1 4 4 0 0 0-3 2 4 4 0 0 0 1 6l7 4-7 3a4 4 0 0 0-1 6 4 4 0 0 0 5 1l7-3v7a4 4 0 1 0 8 0v-7l7 3a4 4 0 0 0 5-1 4 4 0 0 0-1-6l-7-3 7-4a4 4 0 0 0 1-6 4 4 0 0 0-3-2 4 4 0 0 0-2 1l-7 4v-8a4 4 0 0 0-4-4"/></svg>
